X:365
T:Farewell to Whiskey
R:polka
S:Denis Murphy and Julia Clifford
I:speed 450
M:2/4
K:G
GE|D2GA BAGA|B2E2 EFGE|D2GA BAGB|d2B2 B2d2|\
efge d2B2|cBAG A2B2|D2GA BAGA|B2G2G2:|*
B2|d2g2 g2fg|efge d3B|d2g2 g2fg|e2f2g4|\
efge d2B2|cBAG A2B2|D2GA BAGA|B2G2 G2:|**
